src/images/common/choise/dimension-icon.svg

<svg width="42" height="50" viewBox="0 0 42 50" fill="none" xmlns="http://www.w3.org/2000/svg">
<path d="M11.7245 50H41.5878V11.7245H11.7245V50ZM13.7224 13.7224H39.5899V47.9495H13.7224V13.7224Z" fill="#DE383F"/>
<path d="M17.5079 7.83386L15.3523 5.67823H37.96L35.8044 7.83386L37.224 9.25342L41.8507 4.62671L37.224 0L35.8044 1.41956L37.96 3.57518H15.3523L17.5079 1.41956L16.0883 0L11.4616 4.62671L16.0883 9.25342L17.5079 7.83386Z" fill="#DE383F"/>
<path d="M7.83386 17.7182L9.25342 16.2986L4.62671 11.6719L0 16.2986L1.41956 17.7182L3.57518 15.5626V46.1619L1.47213 43.9537L0.0525762 45.3733L4.67928 50L9.30599 45.3733L7.83386 43.9537L5.67823 46.1619V15.5626L7.83386 17.7182Z" fill="#DE383F"/>
</svg>

<svg width="42" height="50" fill="none" xmlns="http://www.w3.org/2000/svg"><path d="M11.725 50h29.863V11.724H11.724V50zm1.997-36.278H39.59V47.95H13.722V13.723zM17.508 7.834l-2.156-2.156H37.96l-2.156 2.156 1.42 1.42 4.627-4.627L37.224 0l-1.42 1.42 2.156 2.155H15.352l2.156-2.155L16.088 0l-4.626 4.627 4.626 4.626 1.42-1.42zM7.834 17.718l1.42-1.42-4.627-4.626L0 16.299l1.42 1.42 2.155-2.156v30.599l-2.103-2.208-1.42 1.42L4.68 50l4.627-4.627-1.472-1.42-2.156 2.209v-30.6l2.156 2.156z" fill="#DE383F"/></svg>
